static/img/common/ico-add2.svg

<svg width="11" height="11" viewBox="0 0 11 11" fill="none" xmlns="http://www.w3.org/2000/svg">
<g clip-path="url(#clip0_185_971)">
<path d="M5.5 11C8.53757 11 11 8.53757 11 5.5C11 2.46243 8.53757 0 5.5 0C2.46243 0 0 2.46243 0 5.5C0 8.53757 2.46243 11 5.5 11Z" fill="#0DBBC7"/>
<path d="M7.71296 5.27773H5.72222V3.28699H5.27777V5.27773H3.28703V5.72217H5.27777V7.71291H5.72222V5.72217H7.71296V5.27773Z" fill="white"/>
</g>
<defs>
<clipPath id="clip0_185_971">
<rect width="11" height="11" fill="white"/>
</clipPath>
</defs>
</svg>

<svg xmlns="http://www.w3.org/2000/svg" width="11" height="11" fill="none" viewBox="0 0 11 11"><g clip-path="url(#a)"><path fill="#0dbbc7" d="M5.5 11a5.5 5.5 0 1 0 0-11 5.5 5.5 0 0 0 0 11"/><path fill="#fff" d="M7.713 5.278h-1.99V3.287h-.445v1.99H3.287v.445h1.99v1.99h.445v-1.99h1.991z"/></g><defs><clipPath id="a"><path fill="#fff" d="M0 0h11v11H0z"/></clipPath></defs></svg>
